data/Images/Stratagem Icons/hd2/orbital_railcannon_strike.svg

<svg id="HD2-ORS" xmlns="http://www.w3.org/2000/svg" xmlns:xlink="http://www.w3.org/1999/xlink" viewBox="0 0 126 126">
  <defs>
    <style>
      .cls-1 {
        fill: #de7b6c;
      }

      .cls-1, .cls-2 {
        fill-rule: evenodd;
      }

      .cls-2 {
        fill: #fff;
      }
    </style>
  </defs>
  <g id="HD2-ORS-2" data-name="HD2-ORS">
    <path class="cls-1" d="M98.924,120c-0.329-11.02-2-19.88-4.454-27h15.288A53.738,53.738,0,0,1,117,120H98.924ZM76,68.248V67.631A54,54,0,0,1,107.9,90H93.357C88.644,78.272,81.794,71.8,76,68.248Zm-25-.013C45.2,71.781,38.349,78.255,33.635,90H18.1A53.983,53.983,0,0,1,51,67.394v0.841ZM28.076,120H9a53.732,53.732,0,0,1,7.242-27H32.523C30.077,100.12,28.4,108.98,28.076,120ZM63,174a53.726,53.726,0,0,1-32.644-11H95.644A53.726,53.726,0,0,1,63,174Zm33.089-54H65V106.857L71,100V93H91.509A85.481,85.481,0,0,1,96.089,120ZM90.327,90H71V85l5-4V71.825C82.811,76.372,87.332,82.979,90.327,90ZM51,71.831V81l5,4v5H36.681C39.677,82.981,44.2,76.378,51,71.831ZM35.5,93H56v7l6,6.857V120H30.912A85.548,85.548,0,0,1,35.5,93Z"/>
    <path class="cls-2" d="M54,59H73V79l-5,4V99l-4.5,5L59,99V83l-5-4V59Z"/>
    <path id="Rectangle_10_copy" data-name="Rectangle 10 copy" class="cls-2" d="M73,33H69c0-3.866-2.462-7-5.5-7S58,29.134,58,33H54c0-9.6,4-10,4-10s-4-4.043-4-12h4s0.761,8,5,8h0.557C68,19,68.8,11,68.8,11H73c0,7.957-4.2,12-4.2,12S73,23.4,73,33Zm0,0H69c0,3.866-2.462,7-5.5,7S58,36.866,58,33H54c0,9.6,4,10,4,10s-4,4.043-4,12h4s0.761-8,5-8h0.557C68,47,68.8,55,68.8,55H73c0-7.957-4.2-12-4.2-12S73,42.6,73,33Z"/>
  </g>
</svg>

<svg xmlns="http://www.w3.org/2000/svg" viewBox="0 0 126 126" fill="#fff">
<path fill="#de7b6c" d="M99 120a91 91 0 0 0-4.5-27h15.3a53.7 53.7 0 0 1 7.2 27H99ZM76 68.2v-.6A54 54 0 0 1 107.9 90H93.4A43.6 43.6 0 0 0 76 68.2Zm-25 0A43.5 43.5 0 0 0 33.6 90H18.1A54 54 0 0 1 51 67.4v.8ZM28 120H9a53.7 53.7 0 0 1 7.2-27h16.3c-2.4 7.1-4.1 16-4.4 27Zm35 54a53.7 53.7 0 0 1-32.6-11h65.2A53.7 53.7 0 0 1 63 174Zm33-54H65v-13.1l6-6.9v-7h20.5a85.5 85.5 0 0 1 4.6 27Zm-5.7-30H71v-5l5-4v-9.2A40.3 40.3 0 0 1 90.3 90ZM51 71.8V81l5 4v5H36.7c3-7 7.5-13.6 14.3-18.2ZM35.5 93H56v7l6 6.9V120H31a85.5 85.5 0 0 1 4.5-27Z"/>
<path d="M54 59h19v20l-5 4v16l-4.5 5-4.5-5V83l-5-4V59Z"/>
<path d="M73 33h-4c0-3.9-2.5-7-5.5-7S58 29.1 58 33h-4c0-9.6 4-10 4-10s-4-4-4-12h4s.8 8 5 8h.6c4.4 0 5.2-8 5.2-8H73c0 8-4.2 12-4.2 12s4.2.4 4.2 10Zm0 0h-4c0 3.9-2.5 7-5.5 7S58 36.9 58 33h-4c0 9.6 4 10 4 10s-4 4-4 12h4s.8-8 5-8h.6c4.4 0 5.2 8 5.2 8H73c0-8-4.2-12-4.2-12s4.2-.4 4.2-10Z"/>
</svg>
